svg/fluentui-system-icons/ic_fluent_memory_16_filled.svg

<svg width="16" height="16" viewBox="0 0 16 16" fill="none" xmlns="http://www.w3.org/2000/svg">
<path d="M14.414 4.586C14.039 4.211 13.53 4 13 4V2.5C13 2.367 12.947 2.24 12.854 2.146C12.761 2.052 12.633 2 12.5 2C12.367 2 12.24 2.053 12.146 2.146C12.052 2.239 12 2.367 12 2.5V4H10V2.5C10 2.367 9.947 2.24 9.854 2.146C9.76 2.052 9.633 2 9.5 2C9.367 2 9.24 2.053 9.146 2.146C9.052 2.24 9 2.367 9 2.5V4H7V2.5C7 2.367 6.947 2.24 6.854 2.146C6.76 2.052 6.633 2 6.5 2C6.367 2 6.24 2.053 6.146 2.146C6.052 2.24 6 2.367 6 2.5V4H4V2.5C4 2.367 3.947 2.24 3.854 2.146C3.76 2.052 3.633 2 3.5 2C3.367 2 3.24 2.053 3.146 2.146C3.052 2.24 3 2.367 3 2.5V4C2.47 4 1.961 4.211 1.586 4.586C1.211 4.961 1 5.47 1 6V10C1 10.53 1.211 11.039 1.586 11.414C1.961 11.789 2.47 12 3 12V13.5C3 13.633 3.053 13.76 3.146 13.854C3.24 13.948 3.367 14 3.5 14C3.633 14 3.76 13.947 3.854 13.854C3.948 13.76 4 13.633 4 13.5V12H6V13.5C6 13.633 6.053 13.76 6.146 13.854C6.24 13.948 6.367 14 6.5 14C6.633 14 6.76 13.947 6.854 13.854C6.948 13.76 7 13.633 7 13.5V12H9V13.5C9 13.633 9.053 13.76 9.146 13.854C9.24 13.948 9.367 14 9.5 14C9.633 14 9.76 13.947 9.854 13.854C9.948 13.76 10 13.633 10 13.5V12H12V13.5C12 13.633 12.053 13.76 12.146 13.854C12.24 13.948 12.367 14 12.5 14C12.633 14 12.76 13.947 12.854 13.854C12.948 13.76 13 13.633 13 13.5V12C13.53 12 14.039 11.789 14.414 11.414C14.789 11.039 15 10.53 15 10V6C15 5.47 14.789 4.961 14.414 4.586ZM13 9.5C13 9.633 12.947 9.76 12.854 9.854C12.76 9.948 12.633 10 12.5 10H3.5C3.367 10 3.24 9.947 3.146 9.854C3.052 9.761 3 9.633 3 9.5V6.5C3 6.367 3.053 6.24 3.146 6.146C3.24 6.052 3.367 6 3.5 6H12.5C12.633 6 12.76 6.053 12.854 6.146C12.948 6.239 13 6.367 13 6.5V9.5ZM4 9H12V7H4V9Z" fill="#212121"/>
</svg>

<svg xmlns="http://www.w3.org/2000/svg" width="16" height="16"><path d="M14.414 4.586A2 2 0 0 0 13 4V2.5a.498.498 0 0 0-.5-.5.498.498 0 0 0-.5.5V4h-2V2.5a.5.5 0 1 0-1 0V4H7V2.5a.5.5 0 1 0-1 0V4H4V2.5a.5.5 0 1 0-1 0V4a2 2 0 0 0-2 2v4a2 2 0 0 0 2 2v1.5a.5.5 0 1 0 1 0V12h2v1.5a.5.5 0 1 0 1 0V12h2v1.5a.5.5 0 1 0 1 0V12h2v1.5a.5.5 0 1 0 1 0V12a2 2 0 0 0 2-2V6a2 2 0 0 0-.586-1.414ZM13 9.5a.5.5 0 0 1-.5.5h-9a.498.498 0 0 1-.5-.5v-3a.5.5 0 0 1 .5-.5h9a.498.498 0 0 1 .5.5v3ZM4 9h8V7H4v2Z"/></svg>
